X: 5104
T: Bridge Of Bamore, The
R: reel
M: 4/4
K: Amajor
A2 Af edce|BF^EF GEEF|AGAf edce|f/g/a ec BAA:|
aece a2 c/B/A|BF^EF GEFG|Aece aeec|B^ABc ABce|
a2 ce aAcA|BF^EF GE^DE|A2 Af edce|faec A3||

